!!!COM: Mozart, Wolfgang Amadeus
!!!OTL: String Quartet No. 5 in F Major
!!!OMD: Allegro
!!!OMV: 1
!!!SCT1: K<sup>1</sup> 158
!!!SCA: Chronologisch-thematisches Verzeichnis sämtlicher Tonwerke Wolfgang Amade Mozarts (L. von Köchel; 1862, 2/1905, 3/1937, 1947)
!!!SCT2: K<sup>6</sup> 158
!!!YOR: Breitkopf & Härtel Edition
!!!ENC: Edmund Correia, Jr.
!!!CDT: 1756/1/27/-1791/12/5/
!!!OCY: Österreich
!!!YEC: Copyright (c) 1994, 2000 Center for Computer Assisted Research in the Humanities
!!!YEM: Rights to all derivative editions reserved.
!!!YEM: Refer to licensing agreement for further details.
!!!YEN: United States of America
**kern	**dynam	**kern	**dynam	**kern	**dynam	**kern	**dynam
*I:Violoncello	*I:Violoncello	*I:Viola	*I:Viola	*I:Violino 2	*I:Violino 2	*I:Violino 1	*I:Violino 1
*>[A,A,B,B]	*	*>[A,A,B,B]	*	*>[A,A,B,B]	*	*>[A,A,B,B]	*
*>A	*	*>A	*	*>A	*	*>A	*
*clefF4	*	*clefC3	*	*clefG2	*	*clefG2	*
*k[b-]	*	*k[b-]	*	*k[b-]	*	*k[b-]	*
*F:	*	*F:	*	*F:	*	*F:	*
*M3/4	*	*M3/4	*	*M3/4	*	*M3/4	*
! Allegro	!	! Allegro	!	! Presto	!	! Presto	!
16r	.	16r	.	16r	.	16ff\	f
4r	.	4r	.	4r	.	(12aa\L	.
.	.	.	.	.	.	12ff\	.
.	.	.	.	.	.	12cc\J)	.
32ryy	.	32ryy	.	32ryy	.	32ryy	.
32ryy	.	32ryy	.	32ryy	.	32ryy	.
32ryy	.	32ryy	.	32ryy	.	32ryy	.
32ryy	.	32ryy	.	32ryy	.	32ryy	.
32ryy	.	32ryy	.	32ryy	.	32ryy	.
32ryy	.	32ryy	.	32ryy	.	32ryy	.
32ryy	.	32ryy	.	32ryy	.	32ryy	.
32ryy	.	32ryy	.	32ryy	.	32ryy	.
32ryy	.	32ryy	.	32ryy	.	32ryy	.
32ryy	.	32ryy	.	32ryy	.	32ryy	.
32ryy	.	32ryy	.	32ryy	.	32ryy	.
32ryy	.	32ryy	.	32ryy	.	32ryy	.
32ryy	.	32ryy	.	32ryy	.	32ryy	.
32ryy	.	32ryy	.	32ryy	.	32ryy	.
=1	=1	=1	=1	=1	=1	=1	=1
4r	.	4r	.	4r	.	4a/	.
4r	.	4r	.	4r	.	4r	.
4F#\	f	4d\	f	4a/	f	4cc\	.
=2	=2	=2	=2	=2	=2	=2	=2
4G\	.	4d\	.	4g/	.	4b-\	.
4r	.	4r	.	4r	.	8r	.
.	.	.	.	.	.	16r	.
.	.	.	.	.	.	16ee\	.
4r	.	4r	.	4r	.	(12gg\L	.
.	.	.	.	.	.	12ee\	.
.	.	.	.	.	.	12b-\J)	.
=3	=3	=3	=3	=3	=3	=3	=3
4r	.	4r	.	4r	.	4g/	.
4r	.	4r	.	4r	.	4r	.
4E\	.	4c\	.	4g/	.	4b-\	.
=4	=4	=4	=4	=4	=4	=4	=4
4Fn\	.	4c\	.	4f/	.	4a/	.
4r	.	4r	.	4r	.	8r	.
.	.	.	.	.	.	16r	.
.	.	.	.	.	.	16a/	.
4r	.	4r	.	4r	.	(12cc/L	.
.	.	.	.	.	.	12a/	.
.	.	.	.	.	.	12f/J)	.
=5	=5	=5	=5	=5	=5	=5	=5
4r	.	4r	.	4r	.	[2.ff\	.
4F\	.	4c\	.	8r	.	.	.
.	.	.	.	16r	.	.	.
.	.	.	.	16a/	.	.	.
4F\	.	4A/	.	(12cc/L	.	.	.
.	.	.	.	12a/	.	.	.
.	.	.	.	12f/J)	.	.	.
=6	=6	=6	=6	=6	=6	=6	=6
4r	.	4r	.	4ee-\	.	2.ff\]	.
4A\	.	4c\	.	8r	.	.	.
.	.	.	.	16r	.	.	.
.	.	.	.	16cc\	.	.	.
4A\	.	4f\	.	(12ee-\L	.	.	.
.	.	.	.	12cc\	.	.	.
.	.	.	.	12f\J)	.	.	.
=7	=7	=7	=7	=7	=7	=7	=7
4r	.	4r	.	4dd\	.	[2.ff\	.
4B-\	.	4d\	.	8r	.	.	.
.	.	.	.	16r	.	.	.
.	.	.	.	16f/	.	.	.
4B-\	.	4B-/	.	(12dd/L	.	.	.
.	.	.	.	12b-/	.	.	.
.	.	.	.	12f/J)	.	.	.
=8	=8	=8	=8	=8	=8	=8	=8
4r	.	4r	.	4d/	.	4ff\]	.
4BB-/	.	4d\	.	4r	.	8r	.
.	.	.	.	.	.	16r	.
.	.	.	.	.	.	16ff\	.
4BB-/	.	4B-/	.	4r	.	(12dd\L	.
.	.	.	.	.	.	12b-\	.
.	.	.	.	.	.	12g\J)	.
=9	=9	=9	=9	=9	=9	=9	=9
4r	.	4r	.	4r	.	(2f/	.
4C/	.	(4A/	.	(4c/	.	.	.
!	!	!	!	!	!	! 16aP/	!
4C/	.	4E/)	.	4B-/)	.	4gp/)	.
=10	=10	=10	=10	=10	=10	=10	=10
4F\	.	4F/	.	4A/	.	4f/	.
8r	.	8r	.	8r	.	4r	.
16r	.	16r	.	16r	.	.	.
16F\	.	16f\	.	16f/	.	.	.
(12A\L	.	(12a\L	.	(12a/L	.	4r	.
12F\	.	12f\	.	12f/	.	.	.
12D\J)	.	12d\J)	.	12d/J)	.	.	.
=11	=11	=11	=11	=11	=11	=11	=11
4BBn/	.	4Bn/	.	4Bn/	.	2.r	.
4r	.	4r	.	4r	.	.	.
4r	.	4r	.	4r	.	.	.
=12	=12	=12	=12	=12	=12	=12	=12
4C/xx	p	4r	.	(8c/Lxx	p	[2.gg\xx	p
.	.	.	.	8e/	.	.	.
4r	.	4G/xx	p	8g/	.	.	.
.	.	.	.	8e/	.	.	.
4r	.	4G/	.	8g/	.	.	.
.	.	.	.	8e/J)	.	.	.
=13	=13	=13	=13	=13	=13	=13	=13
4C/	.	4r	.	(8c/L	.	4gg\]	.
.	.	.	.	8e/	.	.	.
!	!	!	!	!	!	! 16ffP/	!
4r	.	4G/	.	8g/	.	4eep\	.
.	.	.	.	8e/	.	.	.
!	!	!	!	!	!	! 16ddP/	!
4r	.	4G/	.	8g/	.	4ccp\	.
.	.	.	.	8e/J)	.	.	.
=14	=14	=14	=14	=14	=14	=14	=14
4D\	.	4r	.	(8G/L	.	(2.cc\	.
.	.	.	.	8f/	.	.	.
4r	.	4G/	.	8g/	.	.	.
.	.	.	.	8f/	.	.	.
4r	.	4G/	.	8g/	.	.	.
.	.	.	.	8f/J)	.	.	.
=15	=15	=15	=15	=15	=15	=15	=15
4D\	.	4r	.	(8G/L	.	4bn\)	.
.	.	.	.	8f/	.	.	.
4r	.	4G/	.	8g/	.	4r	.
.	.	.	.	8f/	.	.	.
4r	.	4G/	.	8g/	.	4r	.
.	.	.	.	8f/J)	.	.	.
=16	=16	=16	=16	=16	=16	=16	=16
4GG/	.	4r	.	(8Bn/L	.	[2.ff\	.
.	.	.	.	8d/	.	.	.
4r	.	4G/	.	8g/	.	.	.
.	.	.	.	8d/	.	.	.
4r	.	4G/	.	8g/	.	.	.
.	.	.	.	8d/J)	.	.	.
=17	=17	=17	=17	=17	=17	=17	=17
4GG/	.	4r	.	(8G/L	.	4ff\]	.
.	.	.	.	8d/	.	.	.
!	!	!	!	!	!	! 16eeP/	!
4r	.	4G/	.	8f/	.	4ddp\	.
.	.	.	.	8d/	.	.	.
!	!	!	!	!	!	! 16ccP/	!
4r	.	4G/	.	8f/	.	4bnp\	.
.	.	.	.	8d/J)	.	.	.
=18	=18	=18	=18	=18	=18	=18	=18
4C/	.	4r	.	(8Bn/L	.	(2.dd\	.
.	.	.	.	8d/	.	.	.
4r	.	4Bn/	.	8g/	.	.	.
.	.	.	.	8f/	.	.	.
4r	.	4B/	.	8g/	.	.	.
.	.	.	.	8f/J)	.	.	.
=19	=19	=19	=19	=19	=19	=19	=19
4C/	.	4r	.	(8e/L	.	4cc\)	.
.	.	.	.	8g/	.	.	.
4r	.	4c\	.	8cc/	.	4r	.
.	.	.	.	8g/	.	.	.
4r	.	4C/	.	8e/	.	4r	.
.	.	.	.	8c/J)	.	.	.
=20	=20	=20	=20	=20	=20	=20	=20
4F\	.	4r	.	(8c/L	.	(8.aat\L	.
.	.	.	.	8f/	.	.	.
.	.	.	.	.	.	32gg\LL	.
.	.	.	.	.	.	32aa\JJJ)	.
4r	.	(8f\L	.	8a/	.	4r	.
.	.	8c\)	.	8f/)	.	.	.
4r	.	(8a\	.	(8cc/	.	4r	.
.	.	8f\J)	.	8a/J)	.	.	.
=21	=21	=21	=21	=21	=21	=21	=21
4E\	.	4r	.	(8c/L	.	(8.ggT\L	.
.	.	.	.	8e/	.	.	.
.	.	.	.	.	.	32ff\LL	.
.	.	.	.	.	.	32gg\JJJ)	.
4r	.	(8e\L	.	8g/	.	4r	.
.	.	8c\)	.	8e/)	.	.	.
4r	.	(8g\	.	(8cc/	.	4r	.
.	.	8e\J)	.	8g/J)	.	.	.
=22	=22	=22	=22	=22	=22	=22	=22
2.BBn/	.	(4d\	.	(8f/L	.	([2dd\	.
.	.	.	.	8g/)	.	.	.
.	.	4Bn/)	.	(8d/	.	.	.
.	.	.	.	8g/)	.	.	.
!	!	! 16gP/	!	!	!	!	!
.	.	(8fp\L	.	(8G/	.	8dd\L]	.
.	.	16e\L	.	8g/J)	.	16ee\L	.
.	.	16d\JJ)	.	.	.	16ff\JJ)	.
=23	=23	=23	=23	=23	=23	=23	=23
4C/	.	4c\	.	(8G/L	.	4ee\	.
.	.	.	.	8c/	.	.	.
4r	.	4r	.	8e/	.	4r	.
.	.	.	.	8c/	.	.	.
4r	.	4r	.	8g/	.	4r	.
.	.	.	.	8e/J)	.	.	.
=24	=24	=24	=24	=24	=24	=24	=24
4F\	.	4r	.	(8c/L	.	(8.aat\L	.
.	.	.	.	8f/)	.	.	.
.	.	.	.	.	.	32gg\LL	.
.	.	.	.	.	.	32aa\JJJ)	.
4r	.	(8f\L	.	(8a/	.	4r	.
.	.	8a\)	.	8cc/)	.	.	.
4r	.	(8f\	.	(8c/	.	4r	.
.	.	8a\J)	.	8cc/J)	.	.	.
=25	=25	=25	=25	=25	=25	=25	=25
4E\	.	4r	.	(8c/L	.	(8.ggT\L	.
.	.	.	.	8e/)	.	.	.
.	.	.	.	.	.	32ff\LL	.
.	.	.	.	.	.	32gg\JJJ)	.
4r	.	(8e\L	.	(8g/	.	4r	.
.	.	8c\)	.	8e/)	.	.	.
4r	.	(8g\	.	(8cc/	.	4r	.
.	.	8e\J)	.	8g/J)	.	.	.
=26	=26	=26	=26	=26	=26	=26	=26
(2.BBn/	.	(4d\	.	(8f/L	.	([2dd\	.
.	.	.	.	8g/)	.	.	.
.	.	4Bn/)	.	(8d/	.	.	.
.	.	.	.	8g/)	.	.	.
!	!	! 16gP/	!	!	!	!	!
.	.	(8fp\L	.	(8G/	.	8dd\L]	.
.	.	16e\L	.	8g/J)	.	16ee\L	.
.	.	16d\JJ)	.	.	.	16ff\JJ)	.
=27	=27	=27	=27	=27	=27	=27	=27
4C/)	.	4c\	.	(8c/L	.	4ee\	.
.	.	.	.	8e/	.	.	.
4r	.	4r	.	8g/	.	4r	.
.	.	.	.	8e/	.	.	.
4r	.	4r	.	8cc/	.	4r	.
.	.	.	.	8g/J)	.	.	.
=28	=28	=28	=28	=28	=28	=28	=28
4F\	.	4f\	.	4a/	.	(8cc#\L	.
.	.	.	.	.	.	8dd\	.
4r	.	4r	.	4r	.	8ee\	.
.	.	.	.	.	.	8dd\	.
4r	.	4r	.	4r	.	8gg\	.
.	.	.	.	.	.	8ff\J)	.
=29	=29	=29	=29	=29	=29	=29	=29
4r	.	4r	.	4r	.	(4aa\	.
(4D\	.	4A/	.	(4f/	.	4a/	.
4F\)	.	4f\	.	8a/L	.	4dd\)	.
.	.	.	.	8f/J)	.	.	.
=30	=30	=30	=30	=30	=30	=30	=30
4G\	.	[2.g\	.	(2.e/	.	(2.ccn\	.
4G\	.	.	.	.	.	.	.
4G\	.	.	.	.	.	.	.
=31	=31	=31	=31	=31	=31	=31	=31
4GG/	.	4g\]	.	4d/)	.	4bn\)	.
8r	.	8r	.	4r	.	4r	.
16r	.	16r	.	.	.	.	.
16G\xx	f	16g\xx	f	.	.	.	.
(12A\L	.	(12a\L	.	4r	.	4r	.
12F#\	.	12f#\	.	.	.	.	.
12G\J)	.	12g\J)	.	.	.	.	.
=32	=32	=32	=32	=32	=32	=32	=32
4GG/	.	4G/	.	4r	.	4r	.
4r	.	4r	.	4e'/	p	4gg'\	p
4r	.	4r	.	4e'/	.	4gg'\	.
=33	=33	=33	=33	=33	=33	=33	=33
4r	.	4r	.	(4c#/	.	(4ee\	.
8r	.	8r	.	4d/)	.	4ff\)	.
16r	.	16r	.	.	.	.	.
16G\	.	16g\	.	.	.	.	.
(12A\L	.	(12a\L	.	4r	.	4r	.
12F#\	.	12f#\	.	.	.	.	.
12G\J)	.	12g\J)	.	.	.	.	.
=34	=34	=34	=34	=34	=34	=34	=34
4GG/	.	4G/	.	4r	.	4r	.
4r	.	4r	.	4d'/	.	4ff'\	.
4r	.	4r	.	4d'/	.	4ff'\	.
=35	=35	=35	=35	=35	=35	=35	=35
2.r	.	2.r	.	(4Bn/	.	(4dd\	.
.	.	.	.	4cn/)	.	8ee\)	.
.	.	.	.	.	.	16r	.
.	.	.	.	.	.	16ee\	f
.	.	.	.	4r	.	(12gg\L	.
.	.	.	.	.	.	12ee\	.
.	.	.	.	.	.	12cc\J)	.
=36	=36	=36	=36	=36	=36	=36	=36
4r	.	4r	.	4r	.	2bb-\	.
4E\	.	4G/	.	4c/	f	.	.
4E\	.	4G/	.	4c/	.	4B-/	.
=37	=37	=37	=37	=37	=37	=37	=37
4F\	.	4F/	.	4c/	.	4A/	.
4r	.	4r	.	4r	.	8r	.
.	.	.	.	.	.	16r	.
.	.	.	.	.	.	16ff\	.
4r	.	4r	.	4r	.	(12aa\L	.
.	.	.	.	.	.	12ff\	.
.	.	.	.	.	.	12dd\J)	.
=38	=38	=38	=38	=38	=38	=38	=38
2.r	.	2.r	.	2.r	.	(4ccc\	.
.	.	.	.	.	.	4gg#\	.
.	.	.	.	.	.	4aa\	.
=39	=39	=39	=39	=39	=39	=39	=39
2.r	.	2.r	.	2.r	.	4ee\	.
.	.	.	.	.	.	4ff\	.
.	.	.	.	.	.	4dd\)	.
=40	=40	=40	=40	=40	=40	=40	=40
4r	.	(2e\	.	4r	.	(2cc\	.
4G\	.	.	.	(4g/	.	.	.
!	!	! 16gP/	!	!	!	! 16eeP/	!
4GG/	.	4fp\)	.	4Bn/)	.	4ddp\)	.
=41	=41	=41	=41	=41	=41	=41	=41
4C/	.	4e\	.	4c/	.	8cc\	.
.	.	.	.	.	.	8r	.
4r	.	8r	.	8r	.	8gg\	p
.	.	16r	.	16r	.	8r	.
.	.	16e\	p	16cc\	p	.	.
4r	.	(12g\L	.	(12ee\L	.	8gg\	.
.	.	12f\	.	12dd\	.	.	.
.	.	.	.	.	.	8r	.
.	.	12e\J)	.	12cc\J)	.	.	.
=42	=42	=42	=42	=42	=42	=42	=42
4G\	p	4d\	.	4bn\	.	8gg\	.
.	.	.	.	.	.	8r	.
4r	.	8r	.	8r	.	8gg\	.
.	.	16r	.	16r	.	8r	.
.	.	16bn\	.	16dd\	.	.	.
4r	.	(12dd\L	.	(12ff\L	.	8gg\	.
.	.	12cc\	.	12ee\	.	.	.
.	.	.	.	.	.	8r	.
.	.	12b\J)	.	12dd\J)	.	.	.
=43	=43	=43	=43	=43	=43	=43	=43
4c\	.	8cc\	.	4ee\	.	4gg\	.
.	.	8r	.	.	.	.	.
4r	.	8g\	.	8r	.	8r	.
.	.	8r	.	16r	.	16r	.
.	.	.	.	16c/	.	16e/	.
4r	.	8g\	.	(12e/L	.	(12g/L	.
.	.	.	.	12d/	.	12f/	.
.	.	8r	.	.	.	.	.
.	.	.	.	12c/J)	.	12e/J)	.
=44	=44	=44	=44	=44	=44	=44	=44
4G\	.	8g\	.	4Bn/	.	4d/	.
.	.	8r	.	.	.	.	.
4r	.	8g\	.	8r	.	8r	.
.	.	8r	.	16r	.	16r	.
.	.	.	.	16B/	.	16d/	.
4r	.	8g\	.	(12d/L	.	(12f/L	.
.	.	.	.	12c/	.	12e/	.
.	.	8r	.	.	.	.	.
.	.	.	.	12B/J)	.	12d/J)	.
=45	=45	=45	=45	=45	=45	=45	=45
4C/	.	4e/ 4G/	.	4c/	.	4c/	.
8r	.	8r	.	8r	.	8r	.
16r	.	16r	.	16r	.	16r	.
=:!!:	=:!!:	=:!!:	=:!!:	=:!!:	=:!!:	=:!!:	=:!!:
*>B	*	*>B	*	*>B	*	*>B	*
16r	.	16r	.	16r	.	16r	.
4r	.	4r	.	4r	.	4r	.
32ryy	.	32ryy	.	32ryy	.	32ryy	.
32ryy	.	32ryy	.	32ryy	.	32ryy	.
32ryy	.	32ryy	.	32ryy	.	32ryy	.
32ryy	.	32ryy	.	32ryy	.	32ryy	.
32ryy	.	32ryy	.	32ryy	.	32ryy	.
32ryy	.	32ryy	.	32ryy	.	32ryy	.
32ryy	.	32ryy	.	32ryy	.	32ryy	.
32ryy	.	32ryy	.	32ryy	.	32ryy	.
32ryy	.	32ryy	.	32ryy	.	32ryy	.
32ryy	.	32ryy	.	32ryy	.	32ryy	.
32ryy	.	32ryy	.	32ryy	.	32ryy	.
32ryy	.	32ryy	.	32ryy	.	32ryy	.
32ryy	.	32ryy	.	32ryy	.	32ryy	.
32ryy	.	32ryy	.	32ryy	.	32ryy	.
=46	=46	=46	=46	=46	=46	=46	=46
8C'/	f	8c'\	f	8c'/	f	8c'/	f
8r	.	8r	.	8r	.	8r	.
8E'\	p	8e'\	p	8e'/	p	8e'/	p
8r	.	8r	.	8r	.	8r	.
8G'\	.	8g'\	.	8g'/	.	8g'/	.
8r	.	8r	.	8r	.	8r	.
=47	=47	=47	=47	=47	=47	=47	=47
8A-'\	.	8a-'\	.	8a-'/xx	.	8a-'/xx	.
8r	.	8r	.	8r	.	8r	.
8F'\	.	8f'\	.	8f'/xx	.	8f'/xx	.
8r	.	8r	.	8r	.	8r	.
4r	.	4r	.	4r	.	4r	.
=48	=48	=48	=48	=48	=48	=48	=48
8c'\	f	8cc'\	f	8cc'\	f	8cc'\	f
8r	.	8r	.	8r	.	8r	.
8A-'\	p	8a-'\	p	8a-'/	p	8a-'/	p
8r	.	8r	.	8r	.	8r	.
8F'\	.	8f'\	.	8f'/	.	8f'/	.
8r	.	8r	.	8r	.	8r	.
=49	=49	=49	=49	=49	=49	=49	=49
8E'\	.	8e'\	.	8e'/xx	.	8e'/xx	.
8r	.	8r	.	8r	.	8r	.
8G'\	.	8g'\	.	8g'/xx	.	8g'/xx	.
8r	.	8r	.	8r	.	8r	.
4r	.	4r	.	4r	.	4r	.
=50	=50	=50	=50	=50	=50	=50	=50
8C'/	f	8c'\	f	8c'/	f	8c'/	f
8r	.	8r	.	8r	.	8r	.
8E'\	p	8e'\	p	8e'/	p	8e'/	p
8r	.	8r	.	8r	.	8r	.
8G'\	.	8g'\	.	8g'/	.	8g'/	.
8r	.	8r	.	8r	.	8r	.
=51	=51	=51	=51	=51	=51	=51	=51
8A-'\	.	8a-'\	.	8a-'/	.	8a-'/	.
8r	.	8r	.	8r	.	8r	.
8E'\	.	8e'\	.	8e'/	.	8e'/	.
8r	.	8r	.	8r	.	8r	.
8F'\	.	8f'\	.	8f'/	.	8f'/	.
8r	.	8r	.	8r	.	8r	.
=52	=52	=52	=52	=52	=52	=52	=52
8D-'\xx	.	8d-'\xx	.	8d-'/xx	.	8d-'/xx	.
8r	.	8r	.	8r	.	8r	.
8C'/xx	.	8c'\xx	.	8c'/xx	.	8c'/xx	.
8r	.	8r	.	8r	.	8r	.
8BBn'/xx	.	8Bn'/xx	.	8Bn'/xx	.	8Bn'/xx	.
8r	.	8r	.	8r	.	8r	.
=53	=53	=53	=53	=53	=53	=53	=53
4C/	.	4c\	.	4c/	.	4c/	.
4C/	.	4r	.	8r	.	4r	.
.	.	.	.	16r	.	.	.
.	.	.	.	16c/	f	.	.
4C/	f	4r	.	(12g/L	.	4r	.
.	.	.	.	12e/	.	.	.
.	.	.	.	12c/J)	.	.	.
=54	=54	=54	=54	=54	=54	=54	=54
4E\	.	2.g\	f	[2.cc\	.	4r	.
4E\	.	.	.	.	.	8r	.
.	.	.	.	.	.	16r	.
.	.	.	.	.	.	16cc\	f
4E\	.	.	.	.	.	(12gg\L	.
.	.	.	.	.	.	12ff\	.
.	.	.	.	.	.	12ee\J)	.
=55	=55	=55	=55	=55	=55	=55	=55
4F#\	.	4a\	.	4cc\]	.	[2.dd\	.
4D\	.	4f#\	.	8r	.	.	.
.	.	.	.	16r	.	.	.
.	.	.	.	16a/	.	.	.
4F#\	.	4d\	.	(12cc\L	.	.	.
.	.	.	.	12b-\	.	.	.
.	.	.	.	12a\J)	.	.	.
=56	=56	=56	=56	=56	=56	=56	=56
4G\	.	[2.g\	.	[2.b-\	.	4dd\]	.
4G\	.	.	.	.	.	8r	.
.	.	.	.	.	.	16r	.
.	.	.	.	.	.	16dd\	.
4Fn\	.	.	.	.	.	(12ff\L	.
.	.	.	.	.	.	12ee\	.
.	.	.	.	.	.	12dd\J)	.
=57	=57	=57	=57	=57	=57	=57	=57
4E\	.	4g\]	.	4b-\]	.	[2.cc\	.
4C/	.	4e\	.	8r	.	.	.
.	.	.	.	16r	.	.	.
.	.	.	.	16g/	.	.	.
4E\	.	4c\	.	(12b-/L	.	.	.
.	.	.	.	12a/	.	.	.
.	.	.	.	12g/J)	.	.	.
=58	=58	=58	=58	=58	=58	=58	=58
4F\	.	[2.fn\	.	[2.a/	.	4cc\]	.
4F\	.	.	.	.	.	8r	.
.	.	.	.	.	.	16r	.
.	.	.	.	.	.	16cc\	.
4E\	.	.	.	.	.	(12aa\L	.
.	.	.	.	.	.	12ff\	.
.	.	.	.	.	.	12cc\J)	.
=59	=59	=59	=59	=59	=59	=59	=59
4D\	.	4f\]	.	4a/]	.	[2.b-\	.
4BB-/	.	4d\	.	8r	.	.	.
.	.	.	.	16r	.	.	.
.	.	.	.	16f/	.	.	.
4D\	.	4B-/	.	(12a/L	.	.	.
.	.	.	.	12g/	.	.	.
.	.	.	.	12f/J)	.	.	.
=60	=60	=60	=60	=60	=60	=60	=60
4E\	.	[2.e\	.	[2.g/	.	4b-\]	.
4E\	.	.	.	.	.	8r	.
.	.	.	.	.	.	16r	.
.	.	.	.	.	.	16b-\	.
4D\	.	.	.	.	.	(12gg\L	.
.	.	.	.	.	.	12ee\	.
.	.	.	.	.	.	12b-\J)	.
=61	=61	=61	=61	=61	=61	=61	=61
4C#/	.	4e\]	.	4g/]	.	4a/	.
8r	.	8r	.	4r	.	4r	.
16r	.	16r	.	.	.	.	.
16A'\	.	16a'\	.	.	.	.	.
(12B-\L	.	(12b-\L	.	4r	.	4r	.
12G#\	.	12g#\	.	.	.	.	.
12A\J)	.	12a\J)	.	.	.	.	.
=62	=62	=62	=62	=62	=62	=62	=62
4AA/	.	4A/	.	4r	.	4r	.
4r	.	4r	.	4f'/	p	4aa'\	p
4r	.	4r	.	4f'/	.	4aa'\	.
=63	=63	=63	=63	=63	=63	=63	=63
4r	.	4r	.	(4d#/	.	(4ff#\	.
8r	.	8r	.	4e/)	.	4gg\)	.
16r	.	16r	.	.	.	.	.
16A'\	.	16a'\	.	.	.	.	.
(12B-\L	.	(12b-\L	.	4r	.	4r	.
12G#\	.	12g#\	.	.	.	.	.
12A\J)	.	12a\J)	.	.	.	.	.
=64	=64	=64	=64	=64	=64	=64	=64
4AA/	.	4A/	.	4r	.	4r	.
4r	.	4r	.	4e'/	.	4gg'\	.
4r	.	4r	.	4e'/	.	4gg'\	.
=65	=65	=65	=65	=65	=65	=65	=65
4r	.	4r	.	(4c#/	.	(4ee\	.
8r	.	8r	.	4dn/)	.	4ffn\)	.
16r	.	16r	.	.	.	.	.
16D'\xx	.	16d'\xx	.	.	.	.	.
(12E\L	.	(12e\L	.	4r	.	4r	.
12C#\	.	12c#\	.	.	.	.	.
12D\J)	.	12d\J)	.	.	.	.	.
=66	=66	=66	=66	=66	=66	=66	=66
4DD/	.	4D/	.	4r	.	4r	.
4r	.	4r	.	4d'/	.	4ff'\	.
4r	.	4r	.	4d'/	.	4ff'\	.
=67	=67	=67	=67	=67	=67	=67	=67
4r	.	4r	.	(4Bn/	.	(4dd\	.
8r	.	8r	.	4cn/)	.	4ee-\)	.
16r	.	16r	.	.	.	.	.
16F'\xx	.	16f'\xx	.	.	.	.	.
(12Gn\L	.	(12gn\L	.	4r	.	4r	.
12E\	.	12e\	.	.	.	.	.
12F\J)	.	12f\J)	.	.	.	.	.
=68	=68	=68	=68	=68	=68	=68	=68
4FF/	.	4F/	.	4r	.	4r	.
4r	.	4r	.	4c'/	.	4ee-'\	.
4r	.	4r	.	4c'/	.	4ee-'\	.
=69	=69	=69	=69	=69	=69	=69	=69
2.r	.	2.r	.	(4A/	.	(4cc#\	.
.	.	.	.	4B-/)	.	8dd\)	.
.	.	.	.	.	.	16r	.
.	.	.	.	.	.	16d/	.
.	.	.	.	4r	.	(12b-/L	.
.	.	.	.	.	.	12a/	.
.	.	.	.	.	.	12g/J)	.
=70	=70	=70	=70	=70	=70	=70	=70
4r	.	4r	.	4r	.	[2.dd\	.
4B-\xx	p	8r	.	8r	.	.	.
.	.	16r	.	16r	.	.	.
.	.	16d\xx	p	16g/	.	.	.
4A\	.	4f#\	.	(12cc\L	.	.	.
.	.	.	.	12dd\	.	.	.
.	.	.	.	12cc\J)	.	.	.
=71	=71	=71	=71	=71	=71	=71	=71
4G\	.	4g\	.	(2b-\	.	(2dd\]	.
4r	.	4d\	.	.	.	.	.
4r	.	4r	.	4dd\	.	4bb-\	.
=72	=72	=72	=72	=72	=72	=72	=72
4r	.	4r	.	4cc\	.	4aa\	.
(4BB-/	.	4d\	.	4b-\	.	4gg\	.
4BBn/)	.	4d\	.	4a/)	.	4ff\)	.
=73	=73	=73	=73	=73	=73	=73	=73
4C/	.	4c\	.	(8a/L	.	(8ff\L	.
.	.	.	.	8g/)	.	8ee\)	.
4C/	.	4c\	.	(8e/	.	(8gg\	.
.	.	.	.	8g/)	.	8ee\)	.
4C/	.	4c\	.	(8a/	.	(8ff\	.
.	.	.	.	8f/J)	.	8dd\J)	.
=74	=74	=74	=74	=74	=74	=74	=74
4C/	.	4G/	.	4e/	.	4cc\	f
4r	.	4r	.	4r	.	8r	.
.	.	.	.	.	.	16r	.
.	.	.	.	.	.	16ff\	.
4r	.	4r	.	4r	.	(12aa\L	.
.	.	.	.	.	.	12ff\	.
.	.	.	.	.	.	12cc\J)	.
=75	=75	=75	=75	=75	=75	=75	=75
4r	.	4r	.	4r	.	4a/	.
4r	.	4r	.	4r	.	4r	.
4F#\	f	4d\	f	4a/	f	4cc\	.
=76	=76	=76	=76	=76	=76	=76	=76
4G\	.	4d\	.	4g/	.	4b-\	.
4r	.	4r	.	4r	.	8r	.
.	.	.	.	.	.	16r	.
.	.	.	.	.	.	16ee\	.
4r	.	4r	.	4r	.	(12gg\L	.
.	.	.	.	.	.	12ee\	.
.	.	.	.	.	.	12b-\J)	.
=77	=77	=77	=77	=77	=77	=77	=77
4r	.	4r	.	4r	.	4g/	.
4r	.	4r	.	4r	.	4r	.
4E\	.	4c\	.	4g/	.	4b-\	.
=78	=78	=78	=78	=78	=78	=78	=78
4F\	.	4c\	.	4f/	.	4a/	.
4r	.	4r	.	4r	.	8r	.
.	.	.	.	.	.	16r	.
.	.	.	.	.	.	16a/	.
4r	.	4r	.	4r	.	(12cc/L	.
.	.	.	.	.	.	12a/	.
.	.	.	.	.	.	12f/J)	.
=79	=79	=79	=79	=79	=79	=79	=79
4r	.	4r	.	4r	.	[2.ff\	.
4F\	.	4c\	.	8r	.	.	.
.	.	.	.	16r	.	.	.
.	.	.	.	16a/	.	.	.
4F\	.	4A/	.	(12cc/L	.	.	.
.	.	.	.	12a/	.	.	.
.	.	.	.	12f/J)	.	.	.
=80	=80	=80	=80	=80	=80	=80	=80
4r	.	4r	.	4ee-\	.	2.ff\_	.
4A\	.	4c\	.	8r	.	.	.
.	.	.	.	16r	.	.	.
.	.	.	.	16cc\	.	.	.
4A\	.	4f\	.	(12ee-\L	.	.	.
.	.	.	.	12cc\	.	.	.
.	.	.	.	12f\J)	.	.	.
=81	=81	=81	=81	=81	=81	=81	=81
4r	.	4r	.	4dd\	.	2.ff\_	.
4B-\	.	4d\	.	8r	.	.	.
.	.	.	.	16r	.	.	.
.	.	.	.	16b-\	.	.	.
4B-\	.	4B-/	.	(12dd/L	.	.	.
.	.	.	.	12b-/	.	.	.
.	.	.	.	12f/J)	.	.	.
=82	=82	=82	=82	=82	=82	=82	=82
4r	.	4r	.	4d/	.	4ff\]	.
4BB-/	.	4d\	.	4r	.	8r	.
.	.	.	.	.	.	16r	.
.	.	.	.	.	.	16ff\	.
4BB-/	.	4B-/	.	4r	.	(12dd\L	.
.	.	.	.	.	.	12b-\	.
.	.	.	.	.	.	12g\J)	.
=83	=83	=83	=83	=83	=83	=83	=83
4r	.	4r	.	4r	.	(2f/	.
4C/	.	(4A/	.	(4c/	.	.	.
!	!	!	!	!	!	! 16aP/	!
4C/	.	4E/)	.	4B-/)	.	4gp/)	.
=84	=84	=84	=84	=84	=84	=84	=84
4FF/	.	4F/	.	4A/	.	4f/	.
8r	.	8r	.	8r	.	4r	.
16r	.	16r	.	16r	.	.	.
16F\	.	16f\	.	16f/	.	.	.
(12E-\L	.	(12e-\L	.	(12e-/L	.	4r	.
12F\	.	12f\	.	12f/	.	.	.
12G\J)	.	12g\J)	.	12g/J)	.	.	.
=85	=85	=85	=85	=85	=85	=85	=85
4AA/	.	4A/	.	4A/	.	2.r	.
4r	.	4r	.	4r	.	.	.
4r	.	4r	.	4r	.	.	.
=86	=86	=86	=86	=86	=86	=86	=86
4BB-/xx	p	4r	.	(8B-/Lxx	p	[2.ff\xx	p
.	.	.	.	8d/	.	.	.
4r	.	4F/xx	p	8f/	.	.	.
.	.	.	.	8d/	.	.	.
4r	.	4F/	.	8f/	.	.	.
.	.	.	.	8d/J)	.	.	.
=87	=87	=87	=87	=87	=87	=87	=87
4BB-/	.	4r	.	(8B-/L	.	4ff\]	.
.	.	.	.	8d/	.	.	.
!	!	!	!	!	!	! 16ee-P/	!
4r	.	4F/	.	8f/	.	4ddp\	.
.	.	.	.	8d/	.	.	.
!	!	!	!	!	!	! 16ccP/	!
4r	.	4F/	.	8f/	.	4b-p\	.
.	.	.	.	8d/J)	.	.	.
=88	=88	=88	=88	=88	=88	=88	=88
4C/	.	4r	.	(8e-/L	.	(2.b-\	.
.	.	.	.	8f/	.	.	.
4r	.	4F/	.	8e-/	.	.	.
.	.	.	.	8f/	.	.	.
4r	.	4F/	.	8e-/	.	.	.
.	.	.	.	8d/J)	.	.	.
=89	=89	=89	=89	=89	=89	=89	=89
4C/	.	4r	.	(8c/L	.	4a/)	.
.	.	.	.	8d/	.	.	.
4r	.	4F/	.	8e-/	.	4r	.
.	.	.	.	8d/	.	.	.
4r	.	4F/	.	8c/	.	4r	.
.	.	.	.	8B-/J)	.	.	.
=90	=90	=90	=90	=90	=90	=90	=90
4FF/	.	4r	.	(8A/L	.	[2.ee-\	.
.	.	.	.	8c/	.	.	.
4r	.	4F/	.	8f/	.	.	.
.	.	.	.	8c/	.	.	.
4r	.	4F/	.	8f/	.	.	.
.	.	.	.	8c/J)	.	.	.
=91	=91	=91	=91	=91	=91	=91	=91
4FF/	.	4r	.	(8A/L	.	4ee-\]	.
.	.	.	.	8c/	.	.	.
!	!	!	!	!	!	! 16ddP/	!
4r	.	4F/	.	8f/	.	4ccp\	.
.	.	.	.	8c/	.	.	.
!	!	!	!	!	!	! 16b-P/	!
4r	.	4F/	.	8f/	.	4ap/	.
.	.	.	.	8e-/J)	.	.	.
=92	=92	=92	=92	=92	=92	=92	=92
4BB-/	.	4r	.	(8A/L	.	(2.cc\	.
.	.	.	.	8c/	.	.	.
4r	.	4A/	.	8f/	.	.	.
.	.	.	.	8e-/	.	.	.
4r	.	4A/	.	8f/	.	.	.
.	.	.	.	8e-/J)	.	.	.
=93	=93	=93	=93	=93	=93	=93	=93
4BB-/	.	4r	.	(8d/L	.	4b-\)	.
.	.	.	.	8f/)	.	.	.
4r	.	4B-/	.	(8b-/	.	4r	.
.	.	.	.	8f/)	.	.	.
4r	.	4B-/	.	(8d/	.	4r	.
.	.	.	.	8B-/J)	.	.	.
=94	=94	=94	=94	=94	=94	=94	=94
4BB-/	.	4r	.	(8e-/L	.	(8.ggT\L	.
.	.	.	.	8g/	.	.	.
.	.	.	.	.	.	32ff\LL	.
.	.	.	.	.	.	32gg\JJJ)	.
4r	.	(8g\L	.	8b-/	.	4r	.
.	.	8e-\)	.	8g/	.	.	.
4r	.	(8d\	.	8f/	.	4r	.
.	.	8e-\J)	.	8e-/J)	.	.	.
=95	=95	=95	=95	=95	=95	=95	=95
4BB-/	.	4r	.	(8d/L	.	(8.ffT\L	.
.	.	.	.	8f/	.	.	.
.	.	.	.	.	.	32een\LL	.
.	.	.	.	.	.	32ff\JJJ)	.
4r	.	(8f\L	.	8b-/	.	4r	.
.	.	8d\)	.	8f/	.	.	.
4r	.	(8B-\	.	8d/	.	4r	.
.	.	8F\J)	.	8B-/J)	.	.	.
=96	=96	=96	=96	=96	=96	=96	=96
(2.FF/	.	(4e-\	.	(8A/L	.	([2cc\	.
.	.	.	.	8c/	.	.	.
.	.	4c\	.	8f/	.	.	.
.	.	.	.	8c/	.	.	.
.	.	4F/)	.	8A/	.	8cc\L]	.
.	.	.	.	8c/J)	.	16dd\L	.
.	.	.	.	.	.	16ee-\JJ)	.
=97	=97	=97	=97	=97	=97	=97	=97
4BB-/)	.	(8F\L	.	(8B-/L	.	4dd\	.
.	.	8B-\)	.	8d/	.	.	.
4r	.	(8d\	.	8f/	.	4r	.
.	.	8B-\	.	8d/	.	.	.
4r	.	8f\	.	8b-/	.	4r	.
.	.	8d\J)	.	8f/J)	.	.	.
=98	=98	=98	=98	=98	=98	=98	=98
4B-\	.	4r	.	(8d/L	.	(8.ddT\L	.
.	.	.	.	8f/)	.	.	.
.	.	.	.	.	.	32cc\LL	.
.	.	.	.	.	.	32dd\JJJ)	.
4r	.	(8f\L	.	(8b-/	.	4r	.
.	.	8d\)	.	8f/)	.	.	.
4r	.	(8B-\	.	(8d/	.	4r	.
.	.	8F\J)	.	8B-/J)	.	.	.
=99	=99	=99	=99	=99	=99	=99	=99
4F\	.	4r	.	(8A/L	.	(8.ccT\L	.
.	.	.	.	8c/	.	.	.
.	.	.	.	.	.	32b-\LL	.
.	.	.	.	.	.	32cc\JJJ)	.
4r	.	(8A/L	.	8f/	.	4r	.
.	.	8F/)	.	8c/)	.	.	.
4r	.	(8c/	.	(8a/	.	4r	.
.	.	8A/J)	.	8f/J)	.	.	.
=100	=100	=100	=100	=100	=100	=100	=100
(2.C/	.	(4B-/	.	(8en/L	.	([2g/	.
.	.	.	.	8c/	.	.	.
.	.	4G/	.	8e/	.	.	.
.	.	.	.	8c/	.	.	.
.	.	4c\)	.	8e/	.	8g/L]	.
.	.	.	.	8g/J)	.	16a/L	.
.	.	.	.	.	.	16b-/JJ)	.
=101	=101	=101	=101	=101	=101	=101	=101
4F\)	.	4c\	.	(8f/L	.	4a/	.
.	.	.	.	8g/	.	.	.
4r	.	4r	.	8a/	.	4r	.
.	.	.	.	8g/	.	.	.
4r	.	4r	.	8f/	.	4r	.
.	.	.	.	8e/J)	.	.	.
=102	=102	=102	=102	=102	=102	=102	=102
4BB-/	.	4B-/	.	4d/	.	(8f#/L	.
.	.	.	.	.	.	8g/	.
4r	.	4r	.	4r	.	8a/	.
.	.	.	.	.	.	8g/	.
4r	.	4r	.	4r	.	8cc/	.
.	.	.	.	.	.	8b-/J)	.
=103	=103	=103	=103	=103	=103	=103	=103
4r	.	4r	.	4r	.	(4dd\	.
(4BB-/	.	(4G/	.	(4G/	.	4d/	.
4GG/)	.	4D/)	.	4B-/)	.	4g/)	.
=104	=104	=104	=104	=104	=104	=104	=104
4C/	.	4C/	.	(2.A/	.	(2.fn/	.
4C/	.	4C/	.	.	.	.	.
4C/	.	4C/	.	.	.	.	.
=105	=105	=105	=105	=105	=105	=105	=105
4C/	.	4C/	.	4G/)	.	4e/)	.
8r	.	8r	.	4r	.	4r	.
16r	.	16r	.	.	.	.	.
16c'\xx	f	16cc'\xx	f	.	.	.	.
(12d\L	.	(12dd\L	.	4r	.	4r	.
12Bn\	.	12bn\	.	.	.	.	.
12c\J)	.	12cc\J)	.	.	.	.	.
=106	=106	=106	=106	=106	=106	=106	=106
4C/	.	4c\	.	4r	.	4r	.
4r	.	4r	.	4a'/	p	4ccc'\	p
4r	.	4r	.	4a'/	.	4ccc'\	.
=107	=107	=107	=107	=107	=107	=107	=107
4r	.	4r	.	(4f#/	.	(4aa\	.
8r	.	8r	.	4g/)	.	4bb-\)	.
16r	.	16r	.	.	.	.	.
16C'/xx	.	16c'\xx	.	.	.	.	.
(12D/L	.	(12d\L	.	4r	.	4r	.
12BBn/	.	12Bn\	.	.	.	.	.
12C/J)	.	12c\J)	.	.	.	.	.
=108	=108	=108	=108	=108	=108	=108	=108
4CC/	.	4C/	.	4r	.	4r	.
4r	.	4r	.	4g'/	.	4bb-'\	.
4r	.	4r	.	4g'/	.	4bb-'\	.
=109	=109	=109	=109	=109	=109	=109	=109
2.r	.	2.r	.	(4e/	.	(4gg\	.
.	.	.	.	4fn/)	.	8aa\)	.
.	.	.	.	.	.	16r	.
.	.	.	.	.	.	16aa'\	f
.	.	.	.	4r	.	(12ccc\L	.
.	.	.	.	.	.	12aa\	.
.	.	.	.	.	.	12ff\J)	.
=110	=110	=110	=110	=110	=110	=110	=110
4r	.	4r	.	4r	.	2eee-\	.
4AA/	.	4f\	.	4cc\	f	.	.
4AA/	.	4f\	.	4cc\	.	4ee-\	.
=111	=111	=111	=111	=111	=111	=111	=111
4BB-/	.	4f\	.	4b-\	.	4dd\	.
4r	.	4r	.	4r	.	8r	.
.	.	.	.	.	.	16r	.
.	.	.	.	.	.	16dd\	.
4r	.	4r	.	4r	.	(12bb-\L	.
.	.	.	.	.	.	12gg\	.
.	.	.	.	.	.	12dd\J)	.
=112	=112	=112	=112	=112	=112	=112	=112
2.r	.	2.r	.	2.r	.	(4ddd\	.
.	.	.	.	.	.	4aa\	.
.	.	.	.	.	.	4bb-\)	.
=113	=113	=113	=113	=113	=113	=113	=113
2.r	.	2.r	.	2.r	.	(8ff#\L	.
.	.	.	.	.	.	8gg\)	.
.	.	.	.	.	.	(8aa\	.
.	.	.	.	.	.	8gg\	.
.	.	.	.	.	.	8bb-\	.
.	.	.	.	.	.	8gg\J)	.
=114	=114	=114	=114	=114	=114	=114	=114
4r	.	4r	.	4r	.	(2ffn\	.
4c\	.	(4c\	.	(4a/	.	.	.
!	!	!	!	!	!	! 16aaP/	!
4C/	.	4B-/)	.	4e/)	.	4ggp\)	.
=115	=115	=115	=115	=115	=115	=115	=115
4F\	.	4A/	.	4f/	.	8ff\	.
.	.	.	.	.	.	8r	.
4r	.	8r	.	8r	.	8cc\	p
.	.	16r	.	16r	.	8r	.
.	.	16A/	p	16f/	p	.	.
4r	.	(12c/L	.	(12a/L	.	8cc\	.
.	.	12B-/	.	12g/	.	.	.
.	.	.	.	.	.	8r	.
.	.	12A/J)	.	12f/J)	.	.	.
=116	=116	=116	=116	=116	=116	=116	=116
4C/	p	4G/	.	4e/	.	8cc\	.
.	.	.	.	.	.	8r	.
4r	.	8r	.	8r	.	8cc\	.
.	.	16r	.	16r	.	8r	.
.	.	16e\	.	16g/	.	.	.
4r	.	(12g\L	.	(12b-/L	.	8cc\	.
.	.	12f\	.	12a/	.	.	.
.	.	.	.	.	.	8r	.
.	.	12e\J)	.	12g/J)	.	.	.
=117	=117	=117	=117	=117	=117	=117	=117
4F\	.	8f\	.	4a/	.	4cc\	.
.	.	8r	.	.	.	.	.
4r	.	8c\	.	8r	.	8r	.
.	.	8r	.	16r	.	16r	.
.	.	.	.	16f/	.	16a/	.
4r	.	8c\	.	(12a/L	.	(12cc\L	.
.	.	.	.	12g/	.	12b-\	.
.	.	8r	.	.	.	.	.
.	.	.	.	12f/J)	.	12a\J)	.
=118	=118	=118	=118	=118	=118	=118	=118
4C/	.	8c\	.	4e/	.	4g/	.
.	.	8r	.	.	.	.	.
4r	.	8c\	.	8r	.	8r	.
.	.	8r	.	16r	.	16r	.
.	.	.	.	16e/	.	16g/	.
4r	.	8c\	.	(12g/L	.	(12b-/L	.
.	.	.	.	12f/	.	12a/	.
.	.	8r	.	.	.	.	.
.	.	.	.	12e/J)	.	12g/J)	.
=119	=119	=119	=119	=119	=119	=119	=119
4F\	.	4c\	.	4f/ 4A/	.	4f/	.
4r	.	4r	.	4r	.	8r	.
.	.	.	.	.	.	16r	.
.	.	.	.	.	.	16ff\	f
4r	.	4r	.	4r	.	(12aa\L	.
.	.	.	.	.	.	12ff\	.
.	.	.	.	.	.	12cc\J)	.
=120	=120	=120	=120	=120	=120	=120	=120
4r	.	4r	.	4r	.	4a/	.
4r	.	4r	.	4r	.	4r	.
4D\	f	4f#\	f	4a/	f	4cc\	.
=121	=121	=121	=121	=121	=121	=121	=121
4G\	.	4d\	.	4g/	.	4b-\	.
4r	.	4r	.	4r	.	8r	.
.	.	.	.	.	.	16r	.
.	.	.	.	.	.	16ee\	.
4r	.	4r	.	4r	.	(12gg\L	.
.	.	.	.	.	.	12ee\	.
.	.	.	.	.	.	12cc\J)	.
=122	=122	=122	=122	=122	=122	=122	=122
4r	.	4r	.	4r	.	4g/	.
4r	.	4r	.	4r	.	4r	.
4C/	.	4e\	.	4g/	.	4b-\	.
=123	=123	=123	=123	=123	=123	=123	=123
4F\	.	4c\	.	4f/	.	4a/	.
4r	.	4r	.	4r	.	4r	.
(4FF#/	.	(4F#/	.	(4A/	.	(4a/	.
=124	=124	=124	=124	=124	=124	=124	=124
4GG/)	.	4G/)	.	4B-/)	.	4b-\)	.
4r	.	4r	.	4r	.	4r	.
(4AA/	.	(4A/	.	(4c/	.	(4cc\	.
=125	=125	=125	=125	=125	=125	=125	=125
4BB-/)	.	4B-/)	.	4d/)	.	4dd\)	.
4r	.	4r	.	4r	.	8r	.
.	.	.	.	.	.	16r	.
.	.	.	.	.	.	16cc#\	p
4r	.	4r	.	4r	.	(12dd\L	.
.	.	.	.	.	.	12b-\	.
.	.	.	.	.	.	12g\J)	.
=126	=126	=126	=126	=126	=126	=126	=126
4r	.	4r	.	4r	.	(2f/	.
4C/	p	(4A/	p	(4c/	p	.	.
!	!	!	!	!	!	! 16aP/	!
4C/	.	4E/)	.	4B-/)	.	4gp/)	.
=127	=127	=127	=127	=127	=127	=127	=127
4FFn/	.	4Fn/	.	4A/	.	4f/	.
8r	.	8r	.	8r	.	8r	.
16r	.	16r	.	16r	.	16r	.
==:|!	==:|!	==:|!	==:|!	==:|!	==:|!	==:|!	==:|!
*-	*-	*-	*-	*-	*-	*-	*-
!!!RWG: Appoggiaturas of spine 'Violino 1' need manual editing in measures: 9, 13, 13, 17, 17, 40, 83, 87, 87, 91, 91, 114, 126
!!!RWG: Appoggiaturas of spine 'Viola' need manual editing in measures: 22, 26, 40
!!!RWG: Key is interpreted using the Humdrum key tool.
!!!AFT: stage2
!!!END: 1994/03/26
!!!KEY: 4076231775
!!!EMD: Converted from MuseData to Humdrum Dec 16, 2000, by Andreas Kornstaedt using muse2kern.
!!!EMD: Manual editing by Craig Sapp, Nov 2001
